X: 409
T: A Trip To Galloway
R: waltz
M: 3/4
K: Dmajor
M:6/8
B/c/|d>cB A<Fd|D>ED A<FD|d>cB A<FD|E>FA B2 B/c/|
d>cB A d2|D2 F/D/ A<FD|G>BG F>AF|E>FA B2||
A|d>fa a<fd|c2 e e<cA|d>fa a<fd|A>FA B2 A|
d>fa a<fd|c>ea e<cA|d>cB A<F[DA]|E>FA B2||

